!!!OTL: 175. Waldeslust.
!!!ARE: Europa, Mitteleuropa, Deutschland, Hunsrueck; Kreis Wetzlar
!!!SCT: B0175
!!!TXL: @@DE
!!!YEM: Copyright 1995, estate of Helmut Schaffrath.
**kern	**text
*ICvox	*
*Ivox	*
*clefG2	*
*M3/4	*
*k[b-e-a-]	*
*E-:	*
=1	=1
!LO:TX:a:t=Heiter, doch nicht ʒu ſchnell.	!
{8.b-/	Wal-
16a-	-des-
4g	-luſt,
4r	.
=2	=2
8.b-/	Wal-
16a-	-des-
4g	-luſt!
4r}	.
=3	=3
{8b-	O
8ee-	wie
4.dd^	ein-
8cc	-ſam
=4	=4
8.cc	ſchlägt
16b-	die
8b-;}	Bruſt!
{8ee-	Jhr
8ff	lie-
8ee-	-ben
=5	=5
8.ee-^	Vö-
16dd	-ge-
8dd	-lein
8ee-	ſingt
8dd	eu-
8cc	-er
=6	=6
8.cc^	Lie-
16b-	-de-
8b-}	-lein
{8b-	und
8cc	ſingt
8b-	aus
=7	=7
8.b-/	Her-
16a-	-ʒensluſt
8a-	.
8cc	aus
8b-	vol-
8a-	-ler
=8	=8
4g	Bruſt.
4r	.
4r}	.
==	==
!!!AGN: Natur - Lied
!!!GTL: Naturfreude, Waldlust, Landleben, Berg- und Wasserfahrt
!!!ONB: ESAC (Essen Associative Code) Database: BOEHME
!!!AMT: simple triple
!!!AIN: vox
!!!EED: Helmut Schaffrath
!!!EEV: 1.0
!!Weise aus dem Kreise u. Wetzlar u. vom Hunsrück. 1890
!!@@COMMENT:"K. Becker, "Rhein. Volksliederb." Nr. 137. - Verf. von Text und Mel. unbekannt und den-
!!noch kein wahres Volkslied, weil die Ausdrucksweiſe ʒu gewählt und ʒu formglatt."
!!@@END:
!!!URL-scan: https://archive.org/details/BoehmeVtLieder1895/page/n173/mode/2up
!!!ENC: Anna Maria Matuszewska
!!!EEV: 2024/21/06
*-	*-
